X: 955
T: Güzel Gün Görmedi
C: Hacı Ârif Bey
O: Turkey
F: http://compmusic.upf.edu/node/140
N: huzzam--sarki--curcuna--guzel_gun_gormedi--haci_arif_bey
N: makam= huzzam
N: form= sarki
N: usul= curcuna = 10/8
M: 10/8
L: 1/16
K: C _1/4B _3/4e ^3/4f 
Q: 1/4=216
%%MIDI tuningsystem comma53
a4 g2f4z4d2 e2f2  | g4 f2e4z4c2 d2e2  | \
w:  ARANAĞME  |   | 
f4 e2d4d2 c2B2 A2G2  | 
w:   | 
{z}A2B2 c2d2 e2f2 a2g6  | {z}a4 g2f4z4d2 e2f2  | \
w:   |  ARANAĞME  | 
g4 f2e4z4c2 d2e2  | 
w:   | 
f4 e2d4d2 c2B2 A2G2  | {z}B2c2 d2e2 f2d2 c2B6  | \
w:   |   | 
{z}z4 f2e2 d2d8c2  | 
w:  Gü zel  *  gün   | 
d4 c2c2 B2B2 ^A2B6  | {z}c6d4e2 d2a2 g2f2  | \
w:  gör *  me *  di   |  â *  vâ  | 
f2g2 f2e2 d2d2 c2B2 A2G2  | 
w:  re  *  gön *  *  lüm    | 
{z}z4 f2e2 d2d8c2  | d4 c2c2 B2B2 ^A2B6  | \
w:  Gü zel  *  gün   |  gör *  me *  di   | 
{z}c6d4e2 d2a2 g2f2  | f2g2 f2e2 d2d2 c2d6  | 
w:  â *  vâ  |  re  *  gön *  *  lüm    | 
{z}d4 e2d2 c2B2 c2d6  | {z}z4 f2g4g2 f2g6  | \
w:  SAZ  |  Ne ler  çek  | 
{z}e6g4f4e4d2  | {z}d6e4f4e4d2  | 
w:  ti  ne ler   |  bî *  çâ  | 
g4 g6g2 agf2 e2d2  | d4 {z}d2d2 c2B2 ^A2B6  | \
w:  re  gön lüm    |  *  Ne ler  *  çek  | 
{z}e6g4f4e4d2  | {z}d6_1/4e4=f4e4d2  | 
w:  ti  ne ler   |  bî *  çâ  | 
d2_1/4e2 d2c2 B2B2 ^A2B6  | {zzz}z4 _b2a2 g2a2 =f2g6  | \
w:  re  *  gön *  *  lüm    |  SAZ  | 
{z}z4 =f2g4g4g6  | {z}=f2g2 a4 g2g2 f2g6  | 
w:  Mu hab bet le   |  se *  râ *  pa   | 
{z}=f6g4a8g2  | {z}c'2_b2 a4 g2g=f gaf4_1/4e2  | \
w:  yâ  |  re  *  gön *  lüm    | 
d4 {z}=f2g4g4g4f2  | {z}_1/4e2d2 e2{z}g4f4_3/4e4d2  | 
w:  *  Mu hab bet le   |  se *  *  râ pa   | 
{z}d6e4f2 g2a2 g2f2  | f2g2 f2e2 d2d2 c2d6  | \
w:  yâ  |  re  *  gön *  *  lüm    | 
{z}d4 e2d2 c2B2 c2d6  | 
w:  SAZ  | 
{z}z4 f2g4g2 f2g6  | {z}e6g4f4e4d2  | \
w:  Ne ler  çek  |  ti  ne ler   | 
{z}d6e4f4e4d2  | g4 g6g2 agf2 e2d2  | 
w:  bî *  çâ  |  re  gön lüm    | 
d4 {z}d2d2 c2B2 ^A2B6  | {z}e6g4f4e4d2  | \
w:  *  Ne ler  *  çek  |  ti  ne ler   | 
{z}d6_1/4e4=f4e4d2  | d2_1/4e2 d2c2 B2B2 ^A2B6  | 
w:  bî *  çâ  |  re  *  gön *  *  lüm    | 
|


